X: 073
T: van toen ik er was 16 jaar oud
C: trad
M: 3/4
L: 1/4
R: wals
K: Cmaj
G|:c2 c|ed>c|B3-|B2 G|d2 d|fe>d|c3-|c2 e|
|e2 e|ed>c|g3-|gde|fed|cBd|G3-|1 G2G:||2 Gcd||
|:e2c|cde|ffe|d3|GBd|fgf|e2d|ccd|
|e2c|cde|ffe|d3|GBd|gfd|c3-|ccd:||
